src/icon.svg

<svg width="100" height="100" viewBox="0 0 100 100">
  <g fill="none" fill-rule="evenodd">
    <circle cx="50" cy="50" r="50" fill="#8F98A3"/>
    <g fill="#FFF" transform="translate(26 24)">
      <path d="M36.9910789,35.558479 L13.6418772,35.558479 L13.6418772,38.2380627 C13.1882976,40.9848656 10.9402052,43.0717083 8.23520195,43.0717083 C5.20308429,43.0717083 2.74506731,40.4496267 2.74506731,37.2151249 C2.74506731,35.2192175 3.68101353,33.4565031 5.11025579,32.3991772 L3.53591399,30 C1.39873928,31.5869582 0,34.2267922 0,37.2151249 C0,42.0668775 3.68702549,46 8.23520195,46 C12.3139853,46 15.7001951,42.8368182 16.3556964,38.6846282 L36.8800188,38.6846282 C37.3553646,39.5569413 38.2409447,40.1434166 39.2549327,40.1434166 C40.7709915,40.1434166 42,38.8323758 42,37.2151249 C42,35.5978741 40.7709915,34.2868333 39.2549327,34.2868333 C38.3152891,34.2868333 37.4859142,34.7904619 36.9910789,35.558479 Z"/>
      <path d="M6.245634,35.0159636 C6.29221503,34.8954689 6.34734324,34.7769086 6.41123376,34.6611241 C6.90658464,33.7634328 7.80339984,33.2595759 8.72696597,33.2547493 L18.8372631,14.9325343 C15.8580818,12.3602965 15.0019452,7.83787603 16.9987341,4.21922917 C19.2243444,0.185904572 24.1514115,-1.19730486 28.0036465,1.12974442 C30.3687196,2.55843228 31.7787983,5.05348189 32,7.70037256 L29.3247151,7.94577831 C29.1775973,6.18070584 28.237471,4.51676153 26.6603719,3.56407116 C24.0922152,2.01270497 20.8075038,2.93484457 19.3237636,5.62372764 C17.8707095,8.25700039 18.6837653,11.6081504 21.1301063,13.2027272 L22.6084877,14.0957845 L11.1573076,34.847992 C11.482711,35.5590823 11.5178047,36.4026756 11.2076185,37.1638289 C10.8291386,38.2357313 9.84320555,39 8.68654925,39 C7.20280908,39 6,37.7423692 6,36.1910031 C6,35.7714908 6.08795437,35.3734577 6.245634,35.0159636 Z"/>
      <path d="M24.5286726,11.646964 L35.8785377,32.4483766 L37.230203,31.6226238 L37.253124,31.6646321 C37.2642804,31.6577059 37.2754688,31.6508153 37.2866892,31.6439606 C39.8596453,30.0721028 43.1376313,30.9828465 44.6082759,33.6781635 C46.0789205,36.3734806 45.1853205,39.8327093 42.6123644,41.4045671 C41.026193,42.3735832 39.1720784,42.399098 37.638643,41.6446525 L36.4937584,44.2100312 C38.7918605,45.3363948 41.5681651,45.2960197 43.9437831,43.8447187 C47.8032173,41.486932 49.1436174,36.298089 46.9376505,32.2551134 C44.9458985,28.6047391 40.7440866,27.1365832 37.1060711,28.621324 L27.0352795,10.1641274 C27.4690832,9.32708446 27.4934864,8.28305062 27.0128657,7.40219519 C26.2775434,6.0545367 24.6385504,5.59916485 23.3520723,6.38509376 C22.0655942,7.17102262 21.6187942,8.90063699 22.3541165,10.2482955 C22.8214491,11.1047972 23.6537935,11.6008853 24.5286726,11.646964 Z"/>
    </g>
  </g>
</svg>

<?xml version="1.0" encoding="utf-8"?>
<!-- Generator: Adobe Illustrator 23.0.1, SVG Export Plug-In . SVG Version: 6.00 Build 0)  -->
<svg version="1.1" id="Layer_1" xmlns="http://www.w3.org/2000/svg" xmlns:xlink="http://www.w3.org/1999/xlink" x="0px" y="0px"
	 viewBox="0 0 100 100" style="enable-background:new 0 0 100 100;" xml:space="preserve">
<style type="text/css">
	.st0{fill-rule:evenodd;clip-rule:evenodd;fill:#8F98A3;}
	.st1{fill-rule:evenodd;clip-rule:evenodd;fill:#FFFFFF;}
</style>
<g>
	<circle class="st0" cx="50" cy="50" r="50"/>
	<g transform="translate(26 24)">
		<path class="st1" d="M37,35.6H13.6v2.7c-0.5,2.7-2.7,4.8-5.4,4.8c-3,0-5.5-2.6-5.5-5.9c0-2,0.9-3.8,2.4-4.8L3.5,30
			C1.4,31.6,0,34.2,0,37.2C0,42.1,3.7,46,8.2,46c4.1,0,7.5-3.2,8.1-7.3h20.5c0.5,0.9,1.4,1.5,2.4,1.5c1.5,0,2.7-1.3,2.7-2.9
			c0-1.6-1.2-2.9-2.7-2.9C38.3,34.3,37.5,34.8,37,35.6z"/>
		<path class="st1" d="M6.2,35c0-0.1,0.1-0.2,0.2-0.4c0.5-0.9,1.4-1.4,2.3-1.4l10.1-18.3c-3-2.6-3.8-7.1-1.8-10.7
			c2.2-4,7.2-5.4,11-3.1c2.4,1.4,3.8,3.9,4,6.6l-2.7,0.2c-0.1-1.8-1.1-3.4-2.7-4.4c-2.6-1.6-5.9-0.6-7.3,2.1c-1.5,2.6-0.6,6,1.8,7.6
			l1.5,0.9L11.2,34.8c0.3,0.7,0.4,1.6,0.1,2.3C10.8,38.2,9.8,39,8.7,39C7.2,39,6,37.7,6,36.2C6,35.8,6.1,35.4,6.2,35z"/>
		<path class="st1" d="M24.5,11.6l11.3,20.8l1.4-0.8l0,0c0,0,0,0,0,0c2.6-1.6,5.9-0.7,7.3,2c1.5,2.7,0.6,6.2-2,7.7
			c-1.6,1-3.4,1-5,0.2l-1.1,2.6c2.3,1.1,5.1,1.1,7.5-0.4c3.9-2.4,5.2-7.5,3-11.6c-2-3.7-6.2-5.1-9.8-3.6L27,10.2
			c0.4-0.8,0.5-1.9,0-2.8c-0.7-1.3-2.4-1.8-3.7-1s-1.7,2.5-1,3.9C22.8,11.1,23.7,11.6,24.5,11.6z"/>
	</g>
</g>
</svg>
